src/assets/InstagramIcon.svg

<svg width="19" height="19" viewBox="0 0 19 19" fill="none" xmlns="http://www.w3.org/2000/svg">
<path fill-rule="evenodd" clip-rule="evenodd" d="M9.50018 14.682C12.362 14.682 14.682 12.362 14.682 9.50018C14.682 6.63834 12.362 4.31836 9.50018 4.31836C6.63834 4.31836 4.31836 6.63834 4.31836 9.50018C4.31836 12.362 6.63834 14.682 9.50018 14.682ZM9.50018 12.9547C11.408 12.9547 12.9547 11.408 12.9547 9.50018C12.9547 7.59228 11.408 6.04563 9.50018 6.04563C7.59228 6.04563 6.04563 7.59228 6.04563 9.50018C6.04563 11.408 7.59228 12.9547 9.50018 12.9547Z" fill="#172E53"/>
<path d="M14.682 3.45508C14.205 3.45508 13.8184 3.84175 13.8184 4.31871C13.8184 4.79568 14.205 5.18235 14.682 5.18235C15.159 5.18235 15.5456 4.79568 15.5456 4.31871C15.5456 3.84175 15.159 3.45508 14.682 3.45508Z" fill="#172E53"/>
<path fill-rule="evenodd" clip-rule="evenodd" d="M0.564784 2.82932C0 3.93778 0 5.38882 0 8.29091V10.7091C0 13.6112 0 15.0623 0.564784 16.1706C1.06158 17.1457 1.8543 17.9384 2.82932 18.4352C3.93778 19 5.38882 19 8.29091 19H10.7091C13.6112 19 15.0623 19 16.1706 18.4352C17.1457 17.9384 17.9384 17.1457 18.4352 16.1706C19 15.0623 19 13.6112 19 10.7091V8.29091C19 5.38882 19 3.93778 18.4352 2.82932C17.9384 1.8543 17.1457 1.06158 16.1706 0.564784C15.0623 0 13.6112 0 10.7091 0H8.29091C5.38882 0 3.93778 0 2.82932 0.564784C1.8543 1.06158 1.06158 1.8543 0.564784 2.82932ZM10.7091 1.72727H8.29091C6.81136 1.72727 5.80558 1.72862 5.02816 1.79213C4.27089 1.854 3.88363 1.96615 3.61349 2.10379C2.96347 2.435 2.435 2.96347 2.10379 3.61349C1.96615 3.88363 1.854 4.27089 1.79213 5.02816C1.72862 5.80558 1.72727 6.81136 1.72727 8.29091V10.7091C1.72727 12.1887 1.72862 13.1944 1.79213 13.9718C1.854 14.7291 1.96615 15.1164 2.10379 15.3865C2.435 16.0365 2.96347 16.565 3.61349 16.8962C3.88363 17.0338 4.27089 17.146 5.02816 17.2079C5.80558 17.2713 6.81136 17.2727 8.29091 17.2727H10.7091C12.1887 17.2727 13.1944 17.2713 13.9718 17.2079C14.7291 17.146 15.1164 17.0338 15.3865 16.8962C16.0365 16.565 16.565 16.0365 16.8962 15.3865C17.0338 15.1164 17.146 14.7291 17.2079 13.9718C17.2713 13.1944 17.2727 12.1887 17.2727 10.7091V8.29091C17.2727 6.81136 17.2713 5.80558 17.2079 5.02816C17.146 4.27089 17.0338 3.88363 16.8962 3.61349C16.565 2.96347 16.0365 2.435 15.3865 2.10379C15.1164 1.96615 14.7291 1.854 13.9718 1.79213C13.1944 1.72862 12.1887 1.72727 10.7091 1.72727Z" fill="#172E53"/>
</svg>

<svg xmlns="http://www.w3.org/2000/svg" width="19" height="19" fill="none" viewBox="0 0 19 19"><path fill="#172e53" fill-rule="evenodd" d="M9.5 14.682a5.182 5.182 0 1 0 0-10.364 5.182 5.182 0 0 0 0 10.364m0-1.727a3.455 3.455 0 1 0 0-6.91 3.455 3.455 0 0 0 0 6.91" clip-rule="evenodd"/><path fill="#172e53" d="M14.682 3.455a.864.864 0 1 0 0 1.727.864.864 0 0 0 0-1.727"/><path fill="#172e53" fill-rule="evenodd" d="M.565 2.83C0 3.937 0 5.388 0 8.29v2.42c0 2.901 0 4.352.565 5.46a5.2 5.2 0 0 0 2.264 2.265C3.938 19 5.39 19 8.291 19h2.418c2.902 0 4.353 0 5.462-.565a5.2 5.2 0 0 0 2.264-2.264C19 15.062 19 13.61 19 10.709V8.291c0-2.902 0-4.353-.565-5.462A5.2 5.2 0 0 0 16.171.565C15.062 0 13.61 0 10.709 0H8.291C5.389 0 3.938 0 2.829.565A5.2 5.2 0 0 0 .565 2.829m10.144-1.103H8.291c-1.48 0-2.485.002-3.263.065-.757.062-1.144.174-1.415.312-.65.331-1.178.86-1.51 1.51-.137.27-.249.657-.31 1.414-.064.778-.066 1.783-.066 3.263v2.418c0 1.48.002 2.485.065 3.263.062.757.174 1.144.312 1.415.331.65.86 1.178 1.51 1.51.27.137.657.249 1.414.31.778.064 1.783.066 3.263.066h2.418c1.48 0 2.485-.002 3.263-.065.757-.062 1.144-.174 1.415-.312a3.46 3.46 0 0 0 1.51-1.51c.137-.27.249-.657.31-1.414.064-.778.066-1.783.066-3.263V8.291c0-1.48-.002-2.485-.065-3.263-.062-.757-.174-1.144-.312-1.415a3.46 3.46 0 0 0-1.51-1.51c-.27-.137-.657-.249-1.414-.31-.778-.064-1.783-.066-3.263-.066" clip-rule="evenodd"/></svg>
